X: 27597
T: Monvara Bridge
R: polka
M: 2/4
K: Gmajor
GB B/c/B/A/|GB B2|A>B cd|ed B/c/B/A/|
GB B/c/B/A/|GB B2|A>B cA|G2 G2:|
dg g/a/g/e/|dB B2|A>B cd|ed B>c|
dg g/a/g/e/|dB B2|A>B ~cA|G2 G2:|
dg ga/b/|ag g2|e/f/g ed|dB B2|
dg ga/b/|ag g2|e/f/g ed|1 g2 g/a/g/e/:|2 g2 g/a/g/e/|dB B/c/B/A/||

